X: 1253
T: MANN'S WALTZ
B: Oliver Ditson "The Boston Collection of Instrumental Music" 1910 p.152 #3
F: http://conquest.imslp.info/files/imglnks/usimg/8/8f/IMSLP175643-PMLP309456-bostoncollection00bost_bw.pdf
%: 2012 John Chambers <jc:trillian.mit.edu>
M: 3/4
L: 1/8
K: C
e>f |\
g>ec>eG>c | B>G d>B f2 | a>fd>f G>B | c>eg>ec'2 |\
g>ec>c'a>f | d>Af>da2 | g2f>GB>d | c4  H:|
|: Bc |\
d2(Bb)g2 | e2(cc')a2 | .^f(e'd'c'af) | (gd').b.g.d2 |\
d2(Bb)g2 | e2(Bc')a2 | .^f(e'd'c'a)f | g4 "^D.C.":|

%%sep 1 1 500
%%sep 1 1 500
